react-docker/public/hero_mobile.svg

<svg width="390" height="785" viewBox="0 0 390 785" fill="none" xmlns="http://www.w3.org/2000/svg">
<mask id="mask0_2929_434" style="mask-type:alpha" maskUnits="userSpaceOnUse" x="-110" y="306" width="402" height="402">
<path d="M-107.632 537.382C-124.295 427.779 -48.9578 325.419 60.6382 308.755C170.234 292.09 272.588 367.432 289.251 477.035C305.914 586.638 230.577 688.998 120.981 705.662C11.3847 722.327 -90.9686 646.985 -107.632 537.382Z" fill="#E73C31"/>
</mask>
<g mask="url(#mask0_2929_434)">
<rect width="200.722" height="401.469" rx="16" transform="matrix(-0.988637 0.150323 -0.150304 -0.98864 120.98 705.663)" fill="#4193F3"/>
</g>
<mask id="mask1_2929_434" style="mask-type:alpha" maskUnits="userSpaceOnUse" x="-271" y="-72" width="461" height="461">
<path d="M166.249 57.5662C221.78 171.814 174.188 309.45 59.9473 364.985C-54.2929 420.519 -191.92 372.923 -247.451 258.676C-302.983 144.428 -255.39 6.79254 -141.15 -48.7424C-26.9093 -104.277 110.718 -56.6813 166.249 57.5662Z" fill="#D4AF2A"/>
</mask>
<g mask="url(#mask1_2929_434)">
<rect width="229.996" height="230.004" rx="16" transform="matrix(0.899363 -0.437202 0.437157 0.899385 -141.15 -48.7422)" fill="#D4AF2A"/>
</g>
<path d="M407.121 565.928C418.1 560.344 431.005 568.739 430.352 581.039L423.75 705.249C423.097 717.549 409.374 724.528 399.05 717.812L294.788 649.99C284.464 643.273 285.281 627.899 296.259 622.315L407.121 565.928Z" fill="#E73C31"/>
<ellipse cx="19.4193" cy="19.4184" rx="19.4193" ry="19.4184" transform="matrix(-0.390378 0.920655 -0.920637 -0.390421 69.0268 218.942)" fill="#E73C31"/>
<ellipse cx="19.4193" cy="19.4184" rx="19.4193" ry="19.4184" transform="matrix(-0.390378 0.920655 -0.920637 -0.390421 33.2726 203.779)" fill="#E73C31"/>
<ellipse cx="181.973" cy="627.271" rx="36.7178" ry="36.7155" transform="rotate(90 181.973 627.271)" fill="#D4AF2A"/>
<path d="M417.355 286.938C424.019 290.215 423.012 300.014 415.82 301.865L379.079 311.323C376.818 311.905 374.924 313.446 373.894 315.541L357.158 349.588C353.882 356.253 344.082 355.245 342.231 348.053L332.775 311.312C332.193 309.051 330.652 307.157 328.557 306.126L294.51 289.389C287.846 286.112 288.853 276.313 296.045 274.462L332.785 265.005C335.047 264.422 336.941 262.882 337.971 260.786L354.707 226.739C357.983 220.074 367.782 221.082 369.634 228.274L379.09 265.015C379.672 267.277 381.213 269.171 383.308 270.201L417.355 286.938Z" fill="#4193F3"/>
<path d="M348.945 126.045C228.266 126.045 130.436 28.2091 130.436 -92.4777C130.436 -213.165 228.266 -311.001 348.945 -311C469.624 -311 567.454 -213.164 567.454 -92.4777C567.454 28.2091 469.624 126.045 348.945 126.045Z" fill="#E73C31"/>
<path d="M348.945 25.1269C283.998 25.1269 231.348 -27.5265 231.348 -92.4778C231.348 -157.429 283.998 -210.083 348.945 -210.083C413.892 -210.083 466.542 -157.429 466.542 -92.4778C466.542 -27.5265 413.892 25.1269 348.945 25.1269Z" fill="#F9F7F2"/>
</svg>

<?xml version="1.0" encoding="UTF-8"?>
<svg id="Layer_1" xmlns="http://www.w3.org/2000/svg" version="1.1" viewBox="0 0 390 785">
  <!-- Generator: Adobe Illustrator 29.5.1, SVG Export Plug-In . SVG Version: 2.1.0 Build 141)  -->
  <defs>
    <style>
      .st0 {
        fill: #d4af2a;
      }

      .st1 {
        fill: #e73c31;
      }

      .st2 {
        fill: #4193f3;
      }
    </style>
  </defs>
  <path class="st0" d="M151.86,64.56L-26.21,151.12c-7.95,3.87-17.52.56-21.39-7.39L-134.16-34.35c-3.36-6.92-1.29-15.08,4.56-19.62,107.93-45.41,233.14-2.12,289.98,100.26h0c1.82,7.19-1.59,14.9-8.52,18.27Z"/>
  <g id="mask1_2929_434">
    <path class="st0" d="M151.86,64.56L-26.21,151.12c-7.95,3.87-17.52.56-21.39-7.39L-134.16-34.35c-3.36-6.92-1.29-15.08,4.56-19.62,107.93-45.41,233.14-2.12,289.98,100.26h0c1.82,7.19-1.59,14.9-8.52,18.27Z"/>
  </g>
  <path class="st1" d="M407.12,565.93c10.98-5.58,23.88,2.81,23.23,15.11l-6.6,124.21c-.65,12.3-14.38,19.28-24.7,12.56l-104.26-67.82c-10.32-6.72-9.51-22.09,1.47-27.67l110.86-56.39Z"/>
  <circle class="st1" cx="43.57" cy="229.24" r="19.42" transform="translate(-185.92 271.48) rotate(-89.67)"/>
  <circle class="st1" cx="7.81" cy="214.08" r="19.42" transform="translate(-206.3 220.65) rotate(-89.67)"/>
  <circle class="st0" cx="181.97" cy="627.27" r="36.72"/>
  <path class="st2" d="M417.36,286.94c6.66,3.28,5.66,13.08-1.54,14.93l-36.74,9.46c-2.26.58-4.15,2.12-5.18,4.22l-16.74,34.05c-3.28,6.66-13.08,5.66-14.93-1.54l-9.46-36.74c-.58-2.26-2.12-4.15-4.22-5.19l-34.05-16.74c-6.66-3.28-5.66-13.08,1.54-14.93l36.74-9.46c2.26-.58,4.16-2.12,5.19-4.22l16.74-34.05c3.28-6.66,13.08-5.66,14.93,1.54l9.46,36.74c.58,2.26,2.12,4.16,4.22,5.19l34.05,16.74Z"/>
  <path class="st1" d="M348.95-311c-120.68,0-218.51,97.84-218.51,218.52s97.83,218.52,218.51,218.52,218.5-97.83,218.5-218.52-97.83-218.52-218.5-218.52ZM348.95,25.13c-64.95,0-117.6-52.66-117.6-117.61s52.65-117.6,117.6-117.6,117.59,52.65,117.59,117.6-52.65,117.61-117.59,117.61Z"/>
  <path class="st2" d="M121.34,700.08c.78,5.14-2.9,9.86-8.07,10.41-106.48,11.15-203.95-63.32-220.22-170.27-16.27-106.95,54.67-207.03,159.64-228.04,5.1-1.02,10.02,2.4,10.8,7.54l57.85,380.36h0Z"/>
</svg>
